src/images/pages/affiliates/support-faq-icon.svg

<svg xmlns="http://www.w3.org/2000/svg" viewBox="-16994 -10133 52.533 66"><defs><style>.cls-1{fill:none;stroke:#293052;stroke-miterlimit:10;stroke-width:2px}</style></defs><g id="Group_1315" data-name="Group 1315" transform="translate(-16994 -10133)"><path id="Path_5928" data-name="Path 5928" class="cls-1" d="M51.534 48.618V26.267a25.267 25.267 0 0 0-50.534 0v22.351"/><path id="Rectangle_844" data-name="Rectangle 844" class="cls-1" transform="translate(1 31.542)" d="M0 0h9.44v17.215H0z"/><path id="Path_5929" data-name="Path 5929" class="cls-1" d="M4.4 34.7a13.924 13.924 0 0 0 13.883 13.883" transform="translate(1.32 13.085)"/><path id="Path_5930" data-name="Path 5930" class="cls-1" d="M26.578 44.382v2.5a2.135 2.135 0 0 1-2.078 2.082h-7.918a2.135 2.135 0 0 1-2.082-2.083v-2.5a2.135 2.135 0 0 1 2.082-2.081H24.5a2.135 2.135 0 0 1 2.078 2.082z" transform="translate(5.242 16.036)"/><path id="Rectangle_845" data-name="Rectangle 845" class="cls-1" transform="translate(42.093 31.542)" d="M0 0h9.44v17.215H0z"/></g></svg>

<svg xmlns="http://www.w3.org/2000/svg" viewBox="-16994 -10133 52.533 66">
  <defs>
    <style>
      .cls-1 {
        fill: none;
        stroke: #293052;
        stroke-miterlimit: 10;
        stroke-width: 2px;
      }
    </style>
  </defs>
  <g id="Group_1315" data-name="Group 1315" transform="translate(-16994 -10133)">
    <path id="Path_5928" data-name="Path 5928" class="cls-1" d="M51.534,48.618V26.267A25.267,25.267,0,0,0,1,26.267V48.618"/>
    <rect id="Rectangle_844" data-name="Rectangle 844" class="cls-1" width="9.44" height="17.215" transform="translate(1 31.542)"/>
    <path id="Path_5929" data-name="Path 5929" class="cls-1" d="M4.4,34.7A13.924,13.924,0,0,0,18.283,48.583" transform="translate(1.32 13.085)"/>
    <path id="Path_5930" data-name="Path 5930" class="cls-1" d="M26.578,44.382v2.5A2.135,2.135,0,0,1,24.5,48.964H16.582A2.135,2.135,0,0,1,14.5,46.881v-2.5A2.135,2.135,0,0,1,16.582,42.3H24.5A2.135,2.135,0,0,1,26.578,44.382Z" transform="translate(5.242 16.036)"/>
    <rect id="Rectangle_845" data-name="Rectangle 845" class="cls-1" width="9.44" height="17.215" transform="translate(42.093 31.542)"/>
  </g>
</svg>
